; generated by Slic3r 1.2.9 on 2016-04-08 at 13:41:24

; external perimeters extrusion width = 0.42mm
; perimeters extrusion width = 0.38mm
; infill extrusion width = 0.68mm
; solid infill extrusion width = 0.50mm
; top infill extrusion width = 0.40mm

M107
M190 S70 ; set bed temperature
G28 ; home all axes
G21 ; set units to millimeters
G90 ; use absolute coordinates
M82 ; use absolute distances for extrusion
G92 E0
G1 E-1.90000 F1800.00000
G92 E0
G1 Z0.280 F11520.000
G1 X121.124 Y118.413 F11520.000
G1 E1.90000 F1800.00000
M204 S2000
G1 X121.913 Y117.624 E1.91908 F2700.000
G1 X124.046 Y116.053 E1.96435
G1 X126.549 Y115.187 E2.00962
G1 X128.149 Y115.041 E2.03709
G1 X171.851 Y115.041 E2.78408
G1 X174.470 Y115.438 E2.82935
G1 X176.852 Y116.596 E2.87463 F2700.000
G1 X178.087 Y117.624 E2.90209
G1 X178.876 Y118.413 E2.92117
G1 X180.447 Y120.546 E2.96644
G1 X181.404 Y123.662 E3.02216
G1 X183.404 Y141.416 E3.32756
G1 X183.459 Y142.404 E3.34446
G1 X183.459 Y148.105 E3.44192
G1 X183.062 Y150.724 E3.48719
G1 X181.904 Y153.106 E3.53246
G1 X180.876 Y154.342 E3.55993
G1 X177.842 Y157.376 E3.63329
G1 X175.709 Y158.947 E3.67857
G1 X173.206 Y159.813 E3.72384
G1 X171.605 Y159.959 E3.75131
G1 X128.395 Y159.959 E4.48990
G1 X125.776 Y159.562 E4.53517
G1 X123.394 Y158.404 E4.58045
G1 X122.158 Y157.376 E4.60791
G1 X119.124 Y154.342 E4.68127
G1 X117.553 Y152.209 E4.72655
G1 X116.687 Y149.706 E4.77182
G1 X116.541 Y148.105 E4.79929
G1 X116.541 Y142.404 E4.89675
G1 X116.596 Y141.416 E4.91365
G1 X118.596 Y123.662 E5.21904
G1 X119.284 Y121.104 E5.26432
G1 X121.094 Y118.456 E5.31914
G1 X121.456 Y118.745 F11520.000
G1 X122.245 Y117.956 E5.33821 F2700.000
G1 X124.326 Y116.437 E5.38226
G1 X126.772 Y115.625 E5.42630
G1 X128.149 Y115.510 E5.44992
G1 X171.851 Y115.510 E6.19691
G1 X174.397 Y115.908 E6.24095
G1 X176.700 Y117.063 E6.28500 F2700.000
G1 X177.755 Y117.956 E6.30862
G1 X178.544 Y118.745 E6.32770
G1 X180.063 Y120.826 E6.37174
G1 X180.937 Y123.714 E6.42331
G1 X182.937 Y141.469 E6.72871
G1 X182.990 Y142.404 E6.74471
G1 X182.990 Y148.105 E6.84217
G1 X182.592 Y150.651 E6.88621
G1 X181.437 Y152.955 E6.93026
G1 X180.544 Y154.009 E6.95388
G1 X177.509 Y157.044 E7.02724
G1 X175.428 Y158.563 E7.07128
G1 X172.982 Y159.375 E7.11532
G1 X171.605 Y159.490 E7.13894
G1 X128.395 Y159.490 E7.87753
G1 X125.849 Y159.092 E7.92158
G1 X123.545 Y157.937 E7.96562
G1 X122.491 Y157.044 E7.98924
G1 X119.456 Y154.009 E8.06260
G1 X117.937 Y151.928 E8.10665
G1 X117.125 Y149.483 E8.15069
G1 X117.010 Y148.105 E8.17431
G1 X117.010 Y142.404 E8.27177
G1 X117.063 Y141.469 E8.28777
G1 X119.063 Y123.714 E8.59316
G1 X119.743 Y121.229 E8.63721
G1 X121.426 Y118.788 E8.68789
G1 X121.788 Y119.077 F11520.000
G1 X122.577 Y118.288 E8.70696 F2700.000
G1 X124.606 Y116.822 E8.74974
G1 X128.149 Y115.980 E8.81199
G1 X171.851 Y115.980 E9.55898
G1 X174.322 Y116.378 E9.60176
G1 X177.423 Y118.288 E9.66401 F2700.000
G1 X178.212 Y119.077 E9.68309
G1 X179.678 Y121.106 E9.72587
G1 X180.470 Y123.767 E9.77333
G1 X182.470 Y141.521 E10.07872
G1 X182.520 Y142.404 E10.09382
G1 X182.520 Y148.105 E10.19128
G1 X182.122 Y150.576 E10.23406
G1 X180.212 Y153.677 E10.29631
G1 X177.177 Y156.712 E10.36967
G1 X175.149 Y158.178 E10.41245
G1 X171.605 Y159.020 E10.47470
G1 X128.395 Y159.020 E11.21329
G1 X125.924 Y158.622 E11.25607
G1 X122.823 Y156.712 E11.31833
G1 X119.788 Y153.677 E11.39168
G1 X118.322 Y151.649 E11.43446
G1 X117.480 Y148.105 E11.49672
G1 X117.480 Y142.404 E11.59417
G1 X117.530 Y141.521 E11.60928
G1 X119.530 Y123.767 E11.91467
G1 X120.201 Y121.356 E11.95745
G1 X121.758 Y119.120 E12.00401
G1 X122.121 Y119.410 F11520.000
G1 X122.910 Y118.621 E12.02309 F2700.000
G1 X124.883 Y117.209 E12.06456
G1 X128.149 Y116.450 E12.12187
G1 X171.851 Y116.450 E12.86886
G1 X174.245 Y116.848 E12.91033
G1 X177.090 Y118.621 E12.96764 F2700.000
G1 X177.879 Y119.410 E12.98672
G1 X179.291 Y121.383 E13.02819
G1 X180.003 Y123.820 E13.07158
G1 X182.003 Y141.574 E13.37697
G1 X182.050 Y142.404 E13.39117
G1 X182.050 Y148.105 E13.48863
G1 X181.652 Y150.499 E13.53011
G1 X179.879 Y153.345 E13.58742
G1 X176.845 Y156.379 E13.66078
G1 X174.871 Y157.791 E13.70225
G1 X171.605 Y158.550 E13.75956
G1 X128.395 Y158.550 E14.49815
G1 X126.001 Y158.152 E14.53963
G1 X123.155 Y156.379 E14.59694
G1 X120.121 Y153.345 E14.67030
G1 X118.709 Y151.371 E14.71177
G1 X117.950 Y148.105 E14.76908
G1 X117.950 Y142.404 E14.86654
G1 X117.997 Y141.574 E14.88074
G1 X119.997 Y123.820 E15.18613
G1 X120.660 Y121.485 E15.22761
G1 X122.090 Y119.453 E15.27010
G1 X122.453 Y119.742 F11520.000
G1 X123.242 Y118.953 E15.28917 F2700.000
G1 X125.159 Y117.597 E15.32930
G1 X128.149 Y116.920 E15.38171
G1 X171.851 Y116.920 E16.12870
G1 X174.165 Y117.317 E16.16882
G1 X176.758 Y118.953 E16.22123 F2700.000
G1 X177.547 Y119.742 E16.24031
G1 X178.903 Y121.659 E16.28043
G1 X179.536 Y123.872 E16.31979
G1 X181.536 Y141.627 E16.62518
G1 X181.580 Y142.404 E16.63848
G1 X181.580 Y148.105 E16.73594
G1 X181.183 Y150.419 E16.77607
G1 X179.547 Y153.012 E16.82847
G1 X176.512 Y156.047 E16.90183
G1 X174.595 Y157.403 E16.94196
G1 X171.605 Y158.080 E16.99437
G1 X128.395 Y158.080 E17.73296
G1 X126.081 Y157.683 E17.77309
G1 X123.488 Y156.047 E17.82549
G1 X120.453 Y153.012 E17.89885
G1 X119.097 Y151.095 E17.93898
G1 X118.420 Y148.105 E17.99139
G1 X118.420 Y142.404 E18.08884
G1 X118.464 Y141.627 E18.10214
G1 X120.464 Y123.872 E18.40754
G1 X121.117 Y121.617 E18.44767
G1 X122.422 Y119.785 E18.48612
G1 X122.785 Y120.074 F11520.000
G1 X123.574 Y119.285 E18.50520 F2700.000
G1 X125.433 Y117.988 E18.54393
G1 X128.149 Y117.390 E18.59148
G1 X171.851 Y117.390 E19.33846
G1 X174.082 Y117.787 E19.37720
G1 X176.426 Y119.285 E19.42475 F2700.000
G1 X177.215 Y120.074 E19.44382
G1 X178.512 Y121.933 E19.48256
G1 X179.069 Y123.925 E19.51792
G1 X181.069 Y141.679 E19.82331
G1 X181.110 Y142.404 E19.83571
G1 X181.110 Y148.105 E19.93317
G1 X180.713 Y150.337 E19.97191
G1 X179.215 Y152.680 E20.01945
G1 X177.089 Y154.806 E20.07084
G1 X176.180 Y155.715 E20.09281
G1 X174.322 Y157.012 E20.13155
G1 X171.605 Y157.610 E20.17909
G1 X128.395 Y157.610 E20.91768
G1 X126.163 Y157.213 E20.95642
G1 X123.820 Y155.715 E21.00396
G1 X120.785 Y152.680 E21.07732
G1 X119.488 Y150.822 E21.11606
G1 X118.890 Y148.105 E21.16360
G1 X118.890 Y142.404 E21.26106
G1 X118.931 Y141.679 E21.27346
G1 X120.931 Y123.925 E21.57885
G1 X121.575 Y121.752 E21.61759
G1 X122.754 Y120.117 E21.65205
G1 E19.75205 F1800.00000
G92 E0
G1 X168.435 Y149.935 F11520.000
G1 E1.90000 F1800.00000
G1 X166.403 Y149.935 E1.93474 F2250.000
G1 X164.832 Y148.365 E1.97270
G1 X168.435 Y148.365 E2.03429
G1 X168.435 Y149.883 E2.06023
G1 E0.16023 F1800.00000
G92 E0
G1 X135.168 Y148.365 F11520.000
G1 E1.90000 F1800.00000
G1 X133.597 Y149.935 E1.93796 F2250.000
G1 X131.565 Y149.935 E1.97270
G1 X131.565 Y148.365 E1.99954
G1 X135.115 Y148.365 E2.06023
G1 E0.16023 F1800.00000
G92 E0
G1 X131.095 Y147.895 F11520.000
G1 E1.90000 F1800.00000
G1 X168.905 Y147.895 E2.54628 F2925.000
G1 X168.905 Y150.405 E2.58919
G1 X166.208 Y150.405 E2.63529
G1 X164.208 Y148.405 E2.68364
G1 X135.792 Y148.405 E3.16934
G1 X133.792 Y150.405 E3.21769
G1 X131.095 Y150.405 E3.26379
G1 X131.095 Y147.947 E3.30580
G1 X130.625 Y147.425 F11520.000
G1 X169.375 Y147.425 E3.96815 F2025.000
G1 X169.375 Y150.875 E4.02712
G1 X166.013 Y150.875 E4.08458
G1 X164.013 Y148.875 E4.13292
G1 X135.987 Y148.875 E4.61198
G1 X133.987 Y150.875 E4.66032
G1 X130.625 Y150.875 E4.71778
G1 X130.625 Y147.477 E4.77586
G1 X130.928 Y147.600 F11520.000
G1 E2.87586 F1800.00000
G92 E0
G1 X171.865 Y141.332 F11520.000
G1 E1.90000 F1800.00000
G1 X173.435 Y142.903 E1.93796 F2250.000
G1 X173.435 Y144.422 E1.96393
G1 X171.865 Y142.852 E2.00189
G1 X171.865 Y141.385 E2.02697
G1 E0.12697 F1800.00000
G92 E0
G1 X171.435 Y137.935 F11520.000
G1 E1.90000 F1800.00000
G1 X170.865 Y137.935 E1.90975 F2250.000
G1 X170.865 Y135.065 E1.95881
G1 X171.435 Y135.065 E1.96856
G1 X171.435 Y137.883 E2.01673
G1 E0.11673 F1800.00000
G92 E0
G1 X161.435 Y125.635 F11520.000
G1 E1.90000 F1800.00000
G1 X158.565 Y125.635 E1.94906 F2250.000
G1 X158.565 Y125.065 E1.95881
G1 X161.435 Y125.065 E2.00787
G1 X161.435 Y125.583 E2.01673
G1 E0.11673 F1800.00000
G92 E0
G1 X141.435 Y125.635 F11520.000
G1 E1.90000 F1800.00000
G1 X138.565 Y125.635 E1.94906 F2250.000
G1 X138.565 Y125.065 E1.95881
G1 X141.435 Y125.065 E2.00787
G1 X141.435 Y125.583 E2.01673
G1 E0.11673 F1800.00000
G92 E0
G1 X129.135 Y135.065 F11520.000
G1 E1.90000 F1800.00000
G1 X129.135 Y137.935 E1.94906 F2250.000
G1 X128.565 Y137.935 E1.95881
G1 X128.565 Y135.065 E2.00787
G1 X129.083 Y135.065 E2.01673
G1 E0.11673 F1800.00000
G92 E0
G1 X128.135 Y141.332 F11520.000
G1 E1.90000 F1800.00000
G1 X128.135 Y142.852 E1.92597 F2250.000
G1 X126.565 Y144.422 E1.96393
G1 X126.565 Y142.903 E1.98991
G1 X128.098 Y141.369 E2.02697
G1 E0.12697 F1800.00000
G92 E0
G1 X128.605 Y138.405 F11520.000
G1 E1.90000 F1800.00000
G1 X128.605 Y143.046 E1.97933 F2925.000
G1 X126.095 Y145.557 E2.04001
G1 X126.095 Y142.708 E2.08871
G1 X128.095 Y140.708 E2.13705
G1 X128.095 Y124.954 E2.40634
G1 X128.454 Y124.595 E2.41501
G1 X171.546 Y124.595 E3.15159
G1 X171.905 Y124.954 E3.16026
G1 X171.905 Y140.708 E3.42954
G1 X173.905 Y142.708 E3.47789
G1 X173.905 Y145.557 E3.52658
G1 X171.395 Y143.046 E3.58726
G1 X171.395 Y138.405 E3.66659
G1 X170.395 Y138.405 E3.68369
G1 X170.395 Y134.595 E3.74881
G1 X171.395 Y134.595 E3.76591
G1 X171.395 Y125.105 E3.92811
G1 X161.905 Y125.105 E4.09032
G1 X161.905 Y126.105 E4.10742
G1 X158.095 Y126.105 E4.17254
G1 X158.095 Y125.105 E4.18963
G1 X141.905 Y125.105 E4.46636
G1 X141.905 Y126.105 E4.48346
G1 X138.095 Y126.105 E4.54858
G1 X138.095 Y125.105 E4.56568
G1 X128.605 Y125.105 E4.72788
G1 X128.605 Y134.595 E4.89009
G1 X129.605 Y134.595 E4.90719
G1 X129.605 Y138.405 E4.97231
G1 X128.658 Y138.405 E4.98851
G1 X129.075 Y138.875 F11520.000
G1 X129.075 Y143.241 E5.06314 F2025.000
G1 X125.816 Y146.500 E5.14191
G1 X130.191 Y150.875 E5.24767
G1 X128.504 Y150.875 E5.27650
G1 X125.625 Y147.996 E5.34610
G1 X125.625 Y142.513 E5.43981
G1 X127.625 Y140.513 E5.48816
G1 X127.625 Y124.759 E5.75744
G1 X128.259 Y124.125 E5.77277
G1 X171.741 Y124.125 E6.51600
G1 X172.375 Y124.759 E6.53132
G1 X172.375 Y140.513 E6.80061
G1 X174.375 Y142.513 E6.84896
G1 X174.375 Y147.996 E6.94266
G1 X171.496 Y150.875 E7.01227
G1 X169.809 Y150.875 E7.04110
G1 X174.184 Y146.500 E7.14686
G1 X170.925 Y143.241 E7.22563
G1 X170.925 Y138.875 E7.30026
G1 X169.925 Y138.875 E7.31735
G1 X169.925 Y134.125 E7.39854
G1 X170.925 Y134.125 E7.41564
G1 X170.925 Y125.575 E7.56178
G1 X162.375 Y125.575 E7.70793
G1 X162.375 Y126.575 E7.72502
G1 X157.625 Y126.575 E7.80621
G1 X157.625 Y125.575 E7.82330
G1 X142.375 Y125.575 E8.08397
G1 X142.375 Y126.575 E8.10106
G1 X137.625 Y126.575 E8.18225
G1 X137.625 Y125.575 E8.19934
G1 X129.075 Y125.575 E8.34549
G1 X129.075 Y134.125 E8.49163
G1 X130.075 Y134.125 E8.50872
G1 X130.075 Y138.875 E8.58991
G1 X129.128 Y138.875 E8.60611
G1 X128.725 Y138.875 F11520.000
G1 E6.70611 F1800.00000
G92 E0
G1 X127.900 Y142.327 F11520.000
G1 E1.90000 F1800.00000
G1 X126.800 Y143.427 E1.95660 F2475.000
G1 E0.05660 F1800.00000
G92 E0
G1 X125.860 Y147.387 F11520.000
G1 E1.90000 F1800.00000
G1 X129.113 Y150.640 E2.06732 F2475.000
G1 E0.16732 F1800.00000
G92 E0
G1 X132.084 Y149.655 F11520.000
G1 E1.90000 F1800.00000
G1 X131.845 Y149.416 E1.90655 F4140.000
G1 X131.855 Y148.674 E1.92092
G1 X132.837 Y149.655 E1.94780
G1 X133.551 Y149.617 E1.96164
G1 X132.578 Y148.645 E1.98825
G1 X133.331 Y148.645 E2.00283
G1 X133.927 Y149.240 E2.01914
G1 X134.084 Y148.645 E2.03106
G1 X134.303 Y148.864 E2.03707
G1 X135.715 Y148.150 F11520.000
G1 X164.285 Y148.150 E2.52541 F2475.000
G1 E0.62541 F1800.00000
G92 E0
G1 X166.688 Y149.655 F11520.000
G1 E1.90000 F1800.00000
G1 X165.697 Y148.665 E1.92690 F4140.000
G1 X166.423 Y148.645 E1.94086
G1 X167.434 Y149.655 E1.96830
G1 X168.148 Y149.623 E1.98202
G1 X167.170 Y148.645 E2.00859
G1 X167.916 Y148.645 E2.02292
G1 X168.155 Y148.884 E2.02942
G1 E0.12942 F1800.00000
G92 E0
G1 X170.887 Y150.640 F11520.000
G1 E1.90000 F1800.00000
G1 X174.140 Y147.387 E2.06732 F2475.000
G1 E0.16732 F1800.00000
G92 E0
G1 X173.200 Y143.427 F11520.000
G1 E1.90000 F1800.00000
G1 X172.100 Y142.327 E1.95660 F2475.000
G1 E0.05660 F1800.00000
G92 E0
G1 X171.650 Y134.830 F11520.000
G1 E1.90000 F1800.00000
G1 X171.650 Y125.031 E2.06749 F2475.000
G1 X171.469 Y124.850 F11520.000
G1 X161.670 Y124.850 E2.23499 F2475.000
G1 E0.33499 F1800.00000
G92 E0
G1 X158.330 Y124.850 F11520.000
G1 E1.90000 F1800.00000
G1 X141.670 Y124.850 E2.18476 F2475.000
G1 E0.28476 F1800.00000
G92 E0
G1 X138.330 Y124.850 F11520.000
G1 E1.90000 F1800.00000
G1 X128.531 Y124.850 E2.06749 F2475.000
G1 X128.350 Y125.031 F11520.000
G1 X128.350 Y134.830 E2.23499 F2475.000
M106 S229.5
M140 S60 ; wait for bed temperature to be reached
G1 E0.33499 F1800.00000
G92 E0
G1 Z0.560 F11520.000
G1 X129.410 Y139.210 F11520.000
G1 E1.90000 F1800.00000
M204 S1200
G1 X130.410 Y139.210 E1.91309 F2052.913
G1 X130.410 Y133.790 E1.98405
G1 X129.410 Y133.790 E1.99714
G1 X129.410 Y125.910 E2.10030
G1 X137.290 Y125.910 E2.20346
G1 X137.290 Y126.910 E2.21656
G1 X142.710 Y126.910 E2.28751
G1 X142.710 Y125.910 E2.30060
G1 X157.290 Y125.910 E2.49148
G1 X157.290 Y126.910 E2.50457
G1 X162.710 Y126.910 E2.57553
G1 X162.710 Y125.910 E2.58862
G1 X170.590 Y125.910 E2.69178
G1 X170.590 Y133.790 E2.79494
G1 X169.590 Y133.790 E2.80803
G1 X169.590 Y139.210 E2.87899
G1 X170.590 Y139.210 E2.89208
G1 X170.590 Y143.380 E2.94667
G1 X173.710 Y146.500 E3.00444
G1 X169.710 Y150.500 E3.07850
G1 X169.710 Y147.090 E3.12314
G1 X130.290 Y147.090 E3.63922
G1 X130.290 Y150.500 E3.68386
G1 X126.290 Y146.500 E3.75792
G1 X129.410 Y143.380 E3.81569
G1 X129.410 Y139.262 E3.86959
M204 S2000
G1 X129.410 Y138.860 F11520.000
G1 E1.96959 F1800.00000
G92 E0
G1 X130.950 Y147.750 F11520.000
G1 E1.90000 F1800.00000
M204 S1200
G1 X169.050 Y147.750 E2.34336 F2965.319
G1 X169.050 Y150.550 E2.37595
G1 X166.148 Y150.550 E2.40972
G1 X164.148 Y148.550 E2.44263
G1 X135.852 Y148.550 E2.77190
G1 X133.852 Y150.550 E2.80481
G1 X130.950 Y150.550 E2.83859
G1 X130.950 Y147.802 E2.87056
M204 S2000
G1 X130.630 Y147.430 F11520.000
M204 S1200
G1 X169.370 Y147.430 E3.32137 F2965.319
G1 X169.370 Y150.870 E3.36140
G1 X166.015 Y150.870 E3.40044
G1 X164.015 Y148.870 E3.43335
G1 X135.985 Y148.870 E3.75953
G1 X133.985 Y150.870 E3.79245
G1 X130.630 Y150.870 E3.83149
G1 X130.630 Y147.482 E3.87091
M204 S2000
G1 E1.97091 F1800.00000
G92 E0
G1 X129.407 Y150.550 F11520.000
G1 E1.90000 F1800.00000
M204 S1200
G1 X128.639 Y150.550 E1.90894 F2281.015
G1 X125.950 Y147.861 E1.95319
G1 X125.950 Y147.093 E1.96213
G1 X129.370 Y150.513 E2.01841
M204 S2000
G1 E0.11841 F1800.00000
G92 E0
G1 X170.593 Y150.550 F11520.000
G1 E1.90000 F1800.00000
M204 S1200
G1 X174.050 Y147.093 E1.95689 F2281.015
G1 X174.050 Y147.861 E1.96583
G1 X171.361 Y150.550 E2.01008
G1 X170.646 Y150.550 E2.01841
M204 S2000
G1 E0.11841 F1800.00000
G92 E0
G1 X171.250 Y138.550 F11520.000
G1 E1.90000 F1800.00000
M204 S1200
G1 X170.250 Y138.550 E1.91164 F2965.319
G1 X170.250 Y134.450 E1.95935
G1 X171.250 Y134.450 E1.97099
G1 X171.250 Y125.250 E2.07804
G1 X162.050 Y125.250 E2.18509
G1 X162.050 Y126.250 E2.19673
G1 X157.950 Y126.250 E2.24444
G1 X157.950 Y125.250 E2.25608
G1 X142.050 Y125.250 E2.44110
G1 X142.050 Y126.250 E2.45274
G1 X137.950 Y126.250 E2.50045
G1 X137.950 Y125.250 E2.51209
G1 X128.750 Y125.250 E2.61914
G1 X128.750 Y134.450 E2.72619
G1 X129.750 Y134.450 E2.73783
G1 X129.750 Y138.550 E2.78554
G1 X128.750 Y138.550 E2.79718
G1 X128.750 Y143.107 E2.85020
G1 X125.950 Y145.907 E2.89629
G1 X125.950 Y142.648 E2.93421
G1 X127.950 Y140.648 E2.96712
G1 X127.950 Y124.893 E3.15045
G1 X128.393 Y124.450 E3.15775
G1 X171.607 Y124.450 E3.66061
G1 X172.050 Y124.893 E3.66791
G1 X172.050 Y140.648 E3.85124
G1 X174.050 Y142.648 E3.88415
G1 X174.050 Y145.907 E3.92208
G1 X171.250 Y143.107 E3.96816
G1 X171.250 Y138.603 E4.02057
M204 S2000
G1 X170.930 Y138.870 F11520.000
M204 S1200
G1 X169.930 Y138.870 E4.03221 F2965.319
G1 X169.930 Y134.130 E4.08737
G1 X170.930 Y134.130 E4.09900
